X:1607
T:Blockers
R:reel
S:
C:Sean Ryan
H:
N:
D:Milltown Session. Also Kevin and Sean Moloney:Bridging the Gap.
Z:Adrian Scahill
M:4/4
L:1/8
K:D
FGAG FDD2|=CA,G,A, CDEG|Add2 cded|=cAG=F E=CC2|\
FGAG FDD2|=CA,G,A, CDEG|Add2 cded|cAGE D4:||\
d2Ad FdAF|G3A GECE|A,DD2 CDEG|FGAB cABc|\
d3c dAFA|G3A GECE|A,DD2 CDEG|FAGE D4:||\


